.github/images/card.svg

<svg width="914" height="400" fill="none" xmlns="http://www.w3.org/2000/svg"><path fill="#fff" d="M0 0h914v400H0z"/><path d="M390.258 192.785c-.729 0-1.326-.214-1.791-.642a2.114 2.114 0 0 1-.697-1.6c0-.647.232-1.176.697-1.586.465-.41 1.062-.615 1.791-.615.739 0 1.336.205 1.791.615.465.41.698.939.698 1.586 0 .656-.233 1.194-.698 1.613-.455.42-1.052.629-1.791.629ZM392.391 209h-4.32v-14h4.32v14Zm25.307 0h-4.306v-7.984c0-2.033-.748-3.049-2.243-3.049-.71 0-1.289.305-1.736.916-.446.61-.67 1.372-.67 2.283V209h-4.32v-8.066c0-1.978-.734-2.967-2.201-2.967-.739 0-1.331.291-1.778.875-.437.583-.656 1.376-.656 2.379V209h-4.32v-14h4.32v2.188h.055c.446-.748 1.071-1.354 1.873-1.819a5.163 5.163 0 0 1 2.652-.711c1.978 0 3.332.871 4.061 2.612 1.066-1.741 2.634-2.612 4.703-2.612 3.044 0 4.566 1.878 4.566 5.633V209Zm14.507 0h-4.088v-2.01h-.055c-.939 1.568-2.329 2.352-4.17 2.352-1.358 0-2.429-.383-3.213-1.149-.774-.774-1.162-1.804-1.162-3.089 0-2.717 1.609-4.284 4.826-4.704l3.801-.505c0-1.532-.829-2.297-2.488-2.297-1.668 0-3.254.496-4.758 1.49v-3.254c.602-.31 1.422-.583 2.461-.82 1.048-.237 2.001-.356 2.857-.356 3.993 0 5.989 1.992 5.989 5.975V209Zm-4.061-5.688v-.943l-2.543.328c-1.403.183-2.105.816-2.105 1.901 0 .492.168.897.506 1.216.346.31.811.465 1.394.465.811 0 1.472-.278 1.983-.834.51-.565.765-1.276.765-2.133Zm20.645 4.088c0 2.598-.752 4.608-2.256 6.03-1.504 1.431-3.682 2.146-6.535 2.146-1.887 0-3.381-.269-4.484-.806v-3.637c1.44.838 2.894 1.258 4.361 1.258 1.458 0 2.589-.388 3.391-1.162.802-.766 1.203-1.81 1.203-3.131v-1.108h-.055c-.984 1.568-2.438 2.352-4.361 2.352-1.787 0-3.204-.629-4.252-1.887-1.048-1.258-1.572-2.944-1.572-5.059 0-2.369.583-4.251 1.75-5.646 1.166-1.395 2.702-2.092 4.607-2.092 1.705 0 2.981.656 3.828 1.969h.055V195h4.32v12.4Zm-4.265-5.127v-1.107c0-.884-.265-1.636-.793-2.256-.52-.629-1.199-.943-2.037-.943-.958 0-1.709.373-2.256 1.121-.547.747-.821 1.8-.821 3.158 0 1.167.26 2.092.78 2.775.519.675 1.23 1.012 2.132 1.012.894 0 1.614-.342 2.161-1.025.556-.693.834-1.604.834-2.735Zm9.502-9.488c-.729 0-1.326-.214-1.791-.642a2.114 2.114 0 0 1-.697-1.6c0-.647.232-1.176.697-1.586.465-.41 1.062-.615 1.791-.615.738 0 1.335.205 1.791.615.465.41.697.939.697 1.586 0 .656-.232 1.194-.697 1.613-.456.42-1.053.629-1.791.629ZM456.159 209h-4.32v-14h4.32v14Zm16.598 0h-4.307v-7.779c0-2.17-.774-3.254-2.324-3.254-.747 0-1.362.287-1.845.861-.484.574-.725 1.304-.725 2.188V209h-4.32v-14h4.32v2.215h.055c1.03-1.705 2.529-2.557 4.498-2.557 3.099 0 4.648 1.923 4.648 5.77V209Zm16.598-1.6c0 2.598-.752 4.608-2.256 6.03-1.503 1.431-3.682 2.146-6.535 2.146-1.886 0-3.381-.269-4.484-.806v-3.637c1.44.838 2.894 1.258 4.361 1.258 1.459 0 2.589-.388 3.391-1.162.802-.766 1.203-1.81 1.203-3.131v-1.108h-.055c-.984 1.568-2.438 2.352-4.361 2.352-1.787 0-3.204-.629-4.252-1.887-1.048-1.258-1.572-2.944-1.572-5.059 0-2.369.583-4.251 1.75-5.646 1.166-1.395 2.702-2.092 4.607-2.092 1.705 0 2.981.656 3.828 1.969h.055V195h4.32v12.4Zm-4.265-5.127v-1.107c0-.884-.265-1.636-.793-2.256-.52-.629-1.199-.943-2.037-.943-.957 0-1.709.373-2.256 1.121-.547.747-.821 1.8-.821 3.158 0 1.167.26 2.092.78 2.775.519.675 1.23 1.012 2.133 1.012.893 0 1.613-.342 2.16-1.025.556-.693.834-1.604.834-2.735Z" fill="#333"/><path d="M493.649 209.273c-.365 0-.675-.127-.93-.382a1.268 1.268 0 0 1-.383-.93c0-.374.123-.688.369-.943.256-.256.57-.383.944-.383.182 0 .351.036.506.109.164.064.305.155.423.274a1.297 1.297 0 0 1 .397.943c0 .182-.036.355-.109.519a1.45 1.45 0 0 1-.288.411 1.214 1.214 0 0 1-.423.273 1.173 1.173 0 0 1-.506.109Zm16.352-1.353c0 2.598-.593 4.521-1.777 5.769-1.176 1.258-2.995 1.887-5.456 1.887a9.598 9.598 0 0 1-4.347-1.025v-1.778c1.522.848 2.971 1.272 4.347 1.272 3.655 0 5.483-1.932 5.483-5.797v-1.682h-.055c-1.075 1.842-2.716 2.762-4.922 2.762-.866 0-1.659-.159-2.379-.478a5.15 5.15 0 0 1-1.832-1.381c-.51-.602-.906-1.331-1.189-2.188-.283-.866-.424-1.841-.424-2.926 0-1.148.151-2.192.451-3.13.301-.948.729-1.76 1.285-2.434a5.69 5.69 0 0 1 2.01-1.559c.793-.373 1.682-.56 2.666-.56 1.978 0 3.423.802 4.334 2.406h.055V195h1.75v12.92Zm-1.75-7.424a4.37 4.37 0 0 0-1.19-3.021 4.105 4.105 0 0 0-1.339-.93 3.981 3.981 0 0 0-1.696-.356c-.729 0-1.39.142-1.982.424a4.366 4.366 0 0 0-1.504 1.203c-.41.52-.729 1.153-.957 1.901-.219.738-.328 1.572-.328 2.502 0 .857.105 1.631.314 2.324.21.693.506 1.281.889 1.764a4 4 0 0 0 1.381 1.121 4.128 4.128 0 0 0 1.818.396c.693 0 1.322-.123 1.887-.369a4.383 4.383 0 0 0 1.449-1.039c.401-.447.711-.966.93-1.559a5.626 5.626 0 0 0 .328-1.941v-2.42Zm11.43 8.832c-1.039 0-1.973-.173-2.803-.519a6.04 6.04 0 0 1-2.105-1.463 6.55 6.55 0 0 1-1.34-2.284c-.31-.884-.465-1.863-.465-2.939 0-1.167.164-2.21.492-3.131.329-.92.793-1.7 1.395-2.338a6.008 6.008 0 0 1 2.201-1.476c.857-.338 1.814-.506 2.871-.506 1.012 0 1.923.168 2.735.506a5.507 5.507 0 0 1 2.064 1.435c.565.629.998 1.395 1.299 2.297.301.902.451 1.928.451 3.076 0 1.094-.159 2.092-.478 2.994a6.671 6.671 0 0 1-1.34 2.311 5.981 5.981 0 0 1-2.133 1.504c-.839.355-1.787.533-2.844.533Zm.137-13.139c-.766 0-1.458.133-2.078.397a4.39 4.39 0 0 0-1.6 1.162c-.437.501-.775 1.121-1.012 1.859-.237.73-.355 1.559-.355 2.489 0 .875.118 1.663.355 2.365.237.702.57 1.303.998 1.805.438.501.967.888 1.586 1.162.62.264 1.313.396 2.079.396.783 0 1.476-.127 2.078-.383a4.205 4.205 0 0 0 1.531-1.134c.419-.502.734-1.112.943-1.832.219-.72.328-1.541.328-2.461 0-1.887-.419-3.327-1.257-4.321-.839-1.002-2.038-1.504-3.596-1.504Z" fill="#555"/></svg>

<svg width="914" height="400" viewBox="0 0 914 400" fill="none" xmlns="http://www.w3.org/2000/svg"><style>#CL0 {fill: #333;}#CL1 {fill: #555;}@media (prefers-color-scheme: dark) {#CL0 {fill: #DDD;}#CL1 {fill: #999;}}</style><path d="M390.258 192.785C389.529 192.785 388.932 192.571 388.467 192.143C388.002 191.705 387.77 191.172 387.77 190.543C387.77 189.896 388.002 189.367 388.467 188.957C388.932 188.547 389.529 188.342 390.258 188.342C390.997 188.342 391.594 188.547 392.049 188.957C392.514 189.367 392.747 189.896 392.747 190.543C392.747 191.199 392.514 191.737 392.049 192.156C391.594 192.576 390.997 192.785 390.258 192.785ZM392.391 209H388.071V195H392.391V209ZM417.698 209H413.392V201.016C413.392 198.983 412.644 197.967 411.149 197.967C410.439 197.967 409.86 198.272 409.413 198.883C408.967 199.493 408.743 200.255 408.743 201.166V209H404.423V200.934C404.423 198.956 403.689 197.967 402.222 197.967C401.483 197.967 400.891 198.258 400.444 198.842C400.007 199.425 399.788 200.218 399.788 201.221V209H395.468V195H399.788V197.188H399.843C400.289 196.44 400.914 195.834 401.716 195.369C402.527 194.895 403.411 194.658 404.368 194.658C406.346 194.658 407.7 195.529 408.429 197.27C409.495 195.529 411.063 194.658 413.132 194.658C416.176 194.658 417.698 196.536 417.698 200.291V209ZM432.205 209H428.117V206.99H428.062C427.123 208.558 425.733 209.342 423.892 209.342C422.534 209.342 421.463 208.959 420.679 208.193C419.905 207.419 419.517 206.389 419.517 205.104C419.517 202.387 421.126 200.82 424.343 200.4L428.144 199.895C428.144 198.363 427.315 197.598 425.656 197.598C423.988 197.598 422.402 198.094 420.898 199.088V195.834C421.5 195.524 422.32 195.251 423.359 195.014C424.407 194.777 425.36 194.658 426.216 194.658C430.209 194.658 432.205 196.65 432.205 200.633V209ZM428.144 203.312V202.369L425.601 202.697C424.198 202.88 423.496 203.513 423.496 204.598C423.496 205.09 423.664 205.495 424.002 205.814C424.348 206.124 424.813 206.279 425.396 206.279C426.207 206.279 426.868 206.001 427.379 205.445C427.889 204.88 428.144 204.169 428.144 203.312ZM448.789 207.4C448.789 209.998 448.037 212.008 446.533 213.43C445.029 214.861 442.851 215.576 439.998 215.576C438.111 215.576 436.617 215.307 435.514 214.77V211.133C436.954 211.971 438.408 212.391 439.875 212.391C441.333 212.391 442.464 212.003 443.266 211.229C444.068 210.463 444.469 209.419 444.469 208.098V206.99H444.414C443.43 208.558 441.976 209.342 440.053 209.342C438.266 209.342 436.849 208.713 435.801 207.455C434.753 206.197 434.229 204.511 434.229 202.396C434.229 200.027 434.812 198.145 435.979 196.75C437.145 195.355 438.681 194.658 440.586 194.658C442.291 194.658 443.567 195.314 444.414 196.627H444.469V195H448.789V207.4ZM444.524 202.273V201.166C444.524 200.282 444.259 199.53 443.731 198.91C443.211 198.281 442.532 197.967 441.694 197.967C440.736 197.967 439.985 198.34 439.438 199.088C438.891 199.835 438.617 200.888 438.617 202.246C438.617 203.413 438.877 204.338 439.397 205.021C439.916 205.696 440.627 206.033 441.529 206.033C442.423 206.033 443.143 205.691 443.69 205.008C444.246 204.315 444.524 203.404 444.524 202.273ZM454.026 192.785C453.297 192.785 452.7 192.571 452.235 192.143C451.77 191.705 451.538 191.172 451.538 190.543C451.538 189.896 451.77 189.367 452.235 188.957C452.7 188.547 453.297 188.342 454.026 188.342C454.764 188.342 455.361 188.547 455.817 188.957C456.282 189.367 456.514 189.896 456.514 190.543C456.514 191.199 456.282 191.737 455.817 192.156C455.361 192.576 454.764 192.785 454.026 192.785ZM456.159 209H451.839V195H456.159V209ZM472.757 209H468.45V201.221C468.45 199.051 467.676 197.967 466.126 197.967C465.379 197.967 464.764 198.254 464.281 198.828C463.797 199.402 463.556 200.132 463.556 201.016V209H459.236V195H463.556V197.215H463.611C464.641 195.51 466.14 194.658 468.109 194.658C471.208 194.658 472.757 196.581 472.757 200.428V209ZM489.355 207.4C489.355 209.998 488.603 212.008 487.099 213.43C485.596 214.861 483.417 215.576 480.564 215.576C478.678 215.576 477.183 215.307 476.08 214.77V211.133C477.52 211.971 478.974 212.391 480.441 212.391C481.9 212.391 483.03 212.003 483.832 211.229C484.634 210.463 485.035 209.419 485.035 208.098V206.99H484.98C483.996 208.558 482.542 209.342 480.619 209.342C478.832 209.342 477.415 208.713 476.367 207.455C475.319 206.197 474.795 204.511 474.795 202.396C474.795 200.027 475.378 198.145 476.545 196.75C477.711 195.355 479.247 194.658 481.152 194.658C482.857 194.658 484.133 195.314 484.98 196.627H485.035V195H489.355V207.4ZM485.09 202.273V201.166C485.09 200.282 484.825 199.53 484.297 198.91C483.777 198.281 483.098 197.967 482.26 197.967C481.303 197.967 480.551 198.34 480.004 199.088C479.457 199.835 479.183 200.888 479.183 202.246C479.183 203.413 479.443 204.338 479.963 205.021C480.482 205.696 481.193 206.033 482.096 206.033C482.989 206.033 483.709 205.691 484.256 205.008C484.812 204.315 485.09 203.404 485.09 202.273Z" id="CL0"/><path d="M493.649 209.273C493.284 209.273 492.974 209.146 492.719 208.891C492.464 208.635 492.336 208.326 492.336 207.961C492.336 207.587 492.459 207.273 492.705 207.018C492.961 206.762 493.275 206.635 493.649 206.635C493.831 206.635 494 206.671 494.155 206.744C494.319 206.808 494.46 206.899 494.578 207.018C494.697 207.127 494.793 207.264 494.866 207.428C494.939 207.592 494.975 207.77 494.975 207.961C494.975 208.143 494.939 208.316 494.866 208.48C494.793 208.635 494.697 208.772 494.578 208.891C494.46 209.009 494.319 209.1 494.155 209.164C494 209.237 493.831 209.273 493.649 209.273ZM510.001 207.92C510.001 210.518 509.408 212.441 508.224 213.689C507.048 214.947 505.229 215.576 502.768 215.576C501.237 215.576 499.788 215.234 498.421 214.551V212.773C499.943 213.621 501.392 214.045 502.768 214.045C506.423 214.045 508.251 212.113 508.251 208.248V206.566H508.196C507.121 208.408 505.48 209.328 503.274 209.328C502.408 209.328 501.615 209.169 500.895 208.85C500.185 208.531 499.574 208.07 499.063 207.469C498.553 206.867 498.157 206.138 497.874 205.281C497.591 204.415 497.45 203.44 497.45 202.355C497.45 201.207 497.601 200.163 497.901 199.225C498.202 198.277 498.63 197.465 499.186 196.791C499.742 196.117 500.412 195.597 501.196 195.232C501.989 194.859 502.878 194.672 503.862 194.672C505.84 194.672 507.285 195.474 508.196 197.078H508.251V195H510.001V207.92ZM508.251 200.496C508.251 199.913 508.146 199.361 507.936 198.842C507.727 198.322 507.435 197.867 507.061 197.475C506.688 197.083 506.241 196.773 505.722 196.545C505.211 196.308 504.646 196.189 504.026 196.189C503.297 196.189 502.636 196.331 502.044 196.613C501.461 196.896 500.959 197.297 500.54 197.816C500.13 198.336 499.811 198.969 499.583 199.717C499.364 200.455 499.255 201.289 499.255 202.219C499.255 203.076 499.36 203.85 499.569 204.543C499.779 205.236 500.075 205.824 500.458 206.307C500.841 206.79 501.301 207.163 501.839 207.428C502.386 207.692 502.992 207.824 503.657 207.824C504.35 207.824 504.979 207.701 505.544 207.455C506.109 207.2 506.592 206.854 506.993 206.416C507.394 205.969 507.704 205.45 507.923 204.857C508.142 204.256 508.251 203.609 508.251 202.916V200.496ZM519.681 209.328C518.642 209.328 517.708 209.155 516.878 208.809C516.058 208.462 515.356 207.975 514.773 207.346C514.19 206.708 513.743 205.947 513.433 205.062C513.123 204.178 512.968 203.199 512.968 202.123C512.968 200.956 513.132 199.913 513.46 198.992C513.789 198.072 514.253 197.292 514.855 196.654C515.466 196.007 516.199 195.515 517.056 195.178C517.913 194.84 518.87 194.672 519.927 194.672C520.939 194.672 521.85 194.84 522.662 195.178C523.473 195.506 524.161 195.984 524.726 196.613C525.291 197.242 525.724 198.008 526.025 198.91C526.326 199.812 526.476 200.838 526.476 201.986C526.476 203.08 526.317 204.078 525.998 204.98C525.688 205.874 525.241 206.644 524.658 207.291C524.074 207.938 523.363 208.439 522.525 208.795C521.686 209.15 520.738 209.328 519.681 209.328ZM519.818 196.189C519.052 196.189 518.36 196.322 517.74 196.586C517.12 196.85 516.587 197.238 516.14 197.748C515.703 198.249 515.365 198.869 515.128 199.607C514.891 200.337 514.773 201.166 514.773 202.096C514.773 202.971 514.891 203.759 515.128 204.461C515.365 205.163 515.698 205.764 516.126 206.266C516.564 206.767 517.093 207.154 517.712 207.428C518.332 207.692 519.025 207.824 519.791 207.824C520.574 207.824 521.267 207.697 521.869 207.441C522.47 207.177 522.981 206.799 523.4 206.307C523.819 205.805 524.134 205.195 524.343 204.475C524.562 203.755 524.671 202.934 524.671 202.014C524.671 200.127 524.252 198.687 523.414 197.693C522.575 196.691 521.376 196.189 519.818 196.189Z" id="CL1"/></svg>
